src/lib/packages/icons/src/assets/line/face-smile-upside-down.svg

<svg width="24" height="24" viewBox="0 0 24 24" fill="none" xmlns="http://www.w3.org/2000/svg">
<path d="M12 22.75C6.07 22.75 1.25 17.93 1.25 12C1.25 6.07 6.07 1.25 12 1.25C17.93 1.25 22.75 6.07 22.75 12C22.75 17.93 17.93 22.75 12 22.75ZM12 2.75C6.9 2.75 2.75 6.9 2.75 12C2.75 17.1 6.9 21.25 12 21.25C17.1 21.25 21.25 17.1 21.25 12C21.25 6.9 17.1 2.75 12 2.75ZM9 15.75C8.28 15.75 7.75 15.01 7.75 14C7.75 12.99 8.28 12.25 9 12.25C9.72 12.25 10.25 12.99 10.25 14C10.25 15.01 9.72 15.75 9 15.75ZM15 15.75C14.28 15.75 13.75 15.01 13.75 14C13.75 12.99 14.28 12.25 15 12.25C15.72 12.25 16.25 12.99 16.25 14C16.25 15.01 15.72 15.75 15 15.75ZM16.44 9.59C16.77 9.34 16.84 8.86999 16.59 8.53999C15.51 7.09999 13.79 6.24001 12 6.24001C10.21 6.24001 8.51002 7.07999 7.40002 8.53999C7.15002 8.86999 7.20998 9.34 7.53998 9.59C7.86998 9.84 8.34003 9.78 8.59003 9.45C9.41003 8.37 10.65 7.75 11.99 7.75C13.33 7.75 14.58 8.39 15.38 9.45C15.53 9.65 15.75 9.75 15.98 9.75C16.14 9.75 16.29 9.70001 16.43 9.60001L16.44 9.59Z" fill="currentColor"/>
</svg>

<svg xmlns="http://www.w3.org/2000/svg" width="24" height="24" fill="none"><path fill="currentColor" d="M12 22.75C6.07 22.75 1.25 17.93 1.25 12S6.07 1.25 12 1.25 22.75 6.07 22.75 12 17.93 22.75 12 22.75Zm0-20C6.9 2.75 2.75 6.9 2.75 12S6.9 21.25 12 21.25s9.25-4.15 9.25-9.25S17.1 2.75 12 2.75Zm-3 13c-.72 0-1.25-.74-1.25-1.75s.53-1.75 1.25-1.75 1.25.74 1.25 1.75-.53 1.75-1.25 1.75Zm6 0c-.72 0-1.25-.74-1.25-1.75s.53-1.75 1.25-1.75 1.25.74 1.25 1.75-.53 1.75-1.25 1.75Zm1.44-6.16c.33-.25.4-.72.15-1.05A5.773 5.773 0 0 0 12 6.24c-1.79 0-3.49.84-4.6 2.3a.749.749 0 1 0 1.19.91c.82-1.08 2.06-1.7 3.4-1.7 1.34 0 2.59.64 3.39 1.7.15.2.37.3.6.3.16 0 .31-.05.45-.15l.01-.01Z"/></svg>
